!!!SOCIAL_FUNCTION:	songs received from animals
!!!PDT:	1918

Specific Region: Dakotas, Minnesota, Montana, Nebraska
!!!REG: Dakotas and Montana
!!!LING_GROUP: Siouan
!!!LANG: Tone
!!!OTL@ENG: Toward Them I Walk
!!!ONM: No. 54
**kern
*Imale
*clefF4
*M3/4
*MM176
16g
=1
2.e
=2
4d
4.d
8e
=3
2.c
=4||
*M2/4
4A
4A
=5||
*M3/4
[2.c
=6
2.c_
=7
2c]
4e
=8
2.d
=9
4c
4.c
8d
=10
2.c
=11||
*M2/4
4A
4A
=12||
*M3/4
[2.A
=13
4A]
4E
4E
=14
[2.A
=15
2.A_
=16||
*M2/4
2A]
=17||
*M3/4
4A
4A
4c
=18||
*M2/4
4.c
8c
=19
[2c
=20
2c]
=21||
*M3/4
4A
4A
4E
=22||
*M2/4
[2A
=23
2A]
=24||
*M3/4
4G
4G
4E
=25||
*M2/4
[2G
=26
2G]
=27
4E
4E
=28
[2E
=29
2E_
=30
2E]
==
*-
!!!CNT: Native American -- Sioux
!!!MRD: 1911/07//-1914///
!!!OCL: Frances Densmore
!!!YOR1: Teton Sioux Music, Bulletin 61,
!!!YOR2: Bureau of American Ethnology, Smithsonian Institution
!!!PPR: Government Printing Office
!!!PPP: Washington, D.C.
!!!PDT: 1918///
!!!ENC: Craig Stuart Sapp
!!!END: 2002/03/25/
!!!EEV: 2002/03/31/
!!!AGN: Song of Personal Dreams/Song Received from Animals
!!!MPN@@SIO: Tatangk'-ehang'ni
!!!MPN@ENG: Old Buffalo
!!!TXO: Teton Sioux
!!!MLC: Standing Rock Reservation, South Dakota, United States of America
!!!ARL: 45.9/-100.7#
!!!catalog: Catalogue No. 639
!!!PPG: 191
!!!EFL: 54/245
!!!VTS: 1386384693
